X:309
T: GAR LIEBLICH HAT SICH GESELLET
N: Z0307
O: Europa, Mitteleuropa, Deutschland
R: Lyrisches Lied, Romanze, Liebes - Lied
M: 2/4
L: 1/16
K: G
G2 | d2ddd2d2 | d2e4
d2 | c2B2c2d2 | B4z2
G2 | d2ddd2d2 | d2e4
d2 | c2B2c2d2 | B4z2
d2 | A2A2A2d2 | A2A2A2
d2 | e2d2c2B2 | A4
d4 | B2A2G2F2 | G4z2

